packages/core/src/svgs/tokens/mono/LAI.svg

<svg width="24" height="24" viewBox="0 0 24 24" fill="none" xmlns="http://www.w3.org/2000/svg">
<path fill-rule="evenodd" clip-rule="evenodd" d="M17.994 22C17.1253 22 16.1503 21.8125 15.0878 21.4499C14.01 21.0723 12.975 20.5822 12.0001 19.9874C10.9626 20.6125 9.91883 21.1124 8.90629 21.4562C7.84376 21.8187 6.86873 22 6.0062 22C4.78116 22 3.77488 21.6374 3.06861 20.9312C1.85607 19.7187 1.66857 17.6435 2.54359 15.0873C2.92312 14.0092 3.41546 12.9742 4.01239 11.9996C3.41557 11.025 2.92325 9.99009 2.54359 8.91206C1.66857 6.34948 1.85607 4.28066 3.06861 3.06812C4.28115 1.85558 6.35621 1.66808 8.91255 2.54311C9.9251 2.88686 10.9626 3.38688 12.0001 4.0119C13.0377 3.38688 14.0752 2.88686 15.0878 2.54311C17.644 1.66808 19.7191 1.85558 20.9316 3.06812C22.1443 4.28066 22.3317 6.35572 21.4567 8.91206C21.0772 9.99009 20.5848 11.0251 19.9879 11.9996C20.613 13.0372 21.1129 14.0747 21.4567 15.0873C22.3317 17.6498 22.1443 19.7187 20.9316 20.9312C20.2253 21.6374 19.2191 21.9937 17.994 21.9937V22ZM16.1315 16.1248C14.819 17.4373 13.4127 18.5623 12.0001 19.4436C10.5022 18.4993 9.11614 17.388 7.86877 16.131C6.55623 14.8185 5.43119 13.4122 4.55616 11.9996C5.43119 10.5809 6.55623 9.17457 7.86877 7.86202C9.18133 6.54948 10.5814 5.42444 11.994 4.54941C13.4127 5.42444 14.819 6.54948 16.1315 7.86202C17.4441 9.17457 18.5691 10.5809 19.4441 11.9996C18.4994 13.4955 17.3881 14.8795 16.1315 16.1248ZM16.4566 16.4561C15.2399 17.6826 13.8945 18.7744 12.4439 19.7124C13.3815 20.2625 14.3189 20.7061 15.2377 21.0187C17.6128 21.8313 19.5253 21.6875 20.6067 20.6062C21.688 19.5248 21.8318 17.6186 21.0191 15.2311C20.7066 14.3184 20.2691 13.381 19.7129 12.4371C18.8378 13.8122 17.7315 15.1873 16.4566 16.4561ZM7.54375 16.4561C6.31669 15.2376 5.2249 13.8902 4.28739 12.4371C3.76009 13.3248 3.3225 14.2629 2.98111 15.2372C2.16859 17.6123 2.31234 19.5248 3.39361 20.6062C4.4749 21.6875 6.38122 21.8313 8.76254 21.0187C9.67513 20.7061 10.6189 20.2686 11.5564 19.7124C10.1054 18.7748 8.75994 17.683 7.54375 16.4561ZM7.54375 7.54326C6.31727 8.7599 5.22551 10.1052 4.28739 11.556C3.76042 10.6703 3.32284 9.73429 2.98111 8.76205C2.16859 6.38073 2.31234 4.47441 3.39361 3.38688C4.01864 2.77436 4.90617 2.4556 6.0062 2.4556C6.81873 2.4556 7.75001 2.63061 8.76254 2.98062C9.67513 3.29312 10.6189 3.73064 11.5564 4.28066C10.1051 5.22034 8.75975 6.31423 7.54375 7.54326ZM16.4566 7.54326C15.2383 6.31424 13.8909 5.22036 12.4376 4.28066C13.3752 3.73064 14.3189 3.29312 15.2377 2.97436C16.122 2.65222 17.0532 2.47698 17.994 2.4556C19.0941 2.4556 19.9879 2.76811 20.6067 3.39314C21.688 4.47441 21.8318 6.38073 21.0191 8.76205C20.7066 9.67464 20.2691 10.6184 19.7129 11.556C18.7767 10.1056 17.687 8.76022 16.4627 7.54326H16.4566ZM6.99998 11.9996C11.9126 11.2934 11.9502 6.99949 11.9502 6.99949V7.0495C12.052 8.34074 12.6209 9.55054 13.5505 10.4525C14.4801 11.3546 15.7066 11.8867 17.0003 11.9497V11.9996C12.0876 12.7059 12.0501 16.9998 12.0501 16.9998V16.9498C11.3377 12.0871 6.99998 12.0496 6.99998 12.0496V11.9996Z" fill="white"/>
</svg>

<svg xmlns="http://www.w3.org/2000/svg" width="24" height="24" fill="none" viewBox="0 0 24 24">
    <path fill="#fff" fill-rule="evenodd" d="M17.994 22c-.869 0-1.844-.187-2.906-.55A16.2 16.2 0 0 1 12 19.987c-1.037.626-2.081 1.125-3.094 1.47-1.062.362-2.037.543-2.9.543-1.225 0-2.231-.363-2.937-1.069-1.213-1.212-1.4-3.288-.525-5.844A16.2 16.2 0 0 1 4.012 12a16.3 16.3 0 0 1-1.468-3.088c-.875-2.563-.688-4.631.525-5.844 1.212-1.212 3.287-1.4 5.844-.525 1.012.344 2.05.844 3.087 1.469 1.038-.625 2.075-1.125 3.088-1.469 2.556-.875 4.631-.687 5.844.525 1.212 1.213 1.4 3.288.525 5.844A16.2 16.2 0 0 1 19.987 12c.626 1.037 1.126 2.075 1.47 3.087.875 2.563.687 4.632-.525 5.844-.707.706-1.713 1.063-2.938 1.063zm-1.863-5.875c-1.312 1.312-2.718 2.437-4.13 3.319a23.4 23.4 0 0 1-4.132-3.313C6.556 14.819 5.43 13.412 4.556 12c.875-1.42 2-2.825 3.313-4.138 1.312-1.313 2.712-2.438 4.125-3.313 1.419.875 2.825 2 4.137 3.313 1.313 1.313 2.438 2.719 3.313 4.138a23.4 23.4 0 0 1-3.312 4.125m.326.331a24 24 0 0 1-4.013 3.256c.938.55 1.875.994 2.794 1.307 2.375.812 4.287.669 5.369-.413 1.081-1.081 1.225-2.987.412-5.375a15.3 15.3 0 0 0-1.306-2.794 23.7 23.7 0 0 1-3.256 4.02m-8.913 0a24 24 0 0 1-3.257-4.019 15.6 15.6 0 0 0-1.306 2.8c-.812 2.375-.669 4.288.413 5.37 1.08 1.08 2.987 1.224 5.369.412a15 15 0 0 0 2.793-1.307 24 24 0 0 1-4.012-3.256m0-8.913a24 24 0 0 0-3.257 4.013 15.6 15.6 0 0 1-1.306-2.794c-.812-2.381-.669-4.288.413-5.375.625-.613 1.512-.931 2.612-.931.813 0 1.744.175 2.757.525.912.312 1.856.75 2.793 1.3a24 24 0 0 0-4.012 3.262m8.913 0a24 24 0 0 0-4.02-3.262 16 16 0 0 1 2.8-1.307 8.6 8.6 0 0 1 2.757-.518c1.1 0 1.994.312 2.613.937 1.081 1.081 1.225 2.988.412 5.37-.312.912-.75 1.855-1.306 2.793a24 24 0 0 0-3.25-4.013zM7 12c4.913-.707 4.95-5 4.95-5v.05a5.325 5.325 0 0 0 5.05 4.9V12c-4.912.706-4.95 5-4.95 5v-.05c-.712-4.863-5.05-4.9-5.05-4.9z" clip-rule="evenodd"/>
</svg>
